X: 181
T: Miss Jane Sharp of Heddon's Reel
C: Abraham Mackintosh
R: reel
M: C|
L: 1/8
Z: 2011 John Chambers <jc:trillian.mit.edu>
B: Abraham Mackintosh "A Collection of Strathspeys, Reels, Jigs &c.", Newcastle, after 1797, p.18
F: http://imslp.info/files/imglnks/usimg/a/a8/IMSLP80796-PMLP164326-Abraham_Mackintosh_coll.pdf
K: A
V: 1
g |\
a2e>c d<BBd | cdec ef/g/ ae | c<Aec B>cde | f<ae>c d<BB :|
|: d |\
c<AAc d<BBd | c<AAc ef/g/ ae | c<Aec B>cde | f>ae>c d<BB :|
V: 2 clef=bass middle=d
z |\
[a2c'2e'2] [a2c'2e'2] [e2g2b2e'2] [e2g2b2e'2] | [a2c'2e'2] [a2c'2e'2] [a2c'2e'2] [a2c'2e'2] |\
[a2c'2e'2] [a2c'2e'2] gabc' | [d'2a2] [c'2a2] [b2g2e2] [bge] :|
|: z |\
[a2c'2e'2] [a2c'2e'2] [e2g2b2e'2] [e2g2b2e'2] | [a2c'2e'2] [a2c'2e'2] [a2c'2e'2] [a2c'2e'2] |\
[a2c'2e'2] [a2c'2e'2] gabc' | [d'2a2] [c'2a2] [b2g2e2] [bge] :|

%%sep 2 1 500

